svgs/regular/tree-city.svg

<svg xmlns="http://www.w3.org/2000/svg" viewBox="0 0 640 512"><!--! Font Awesome Pro 6.6.0 by @fontawesome - https://fontawesome.com License - https://fontawesome.com/license (Commercial License) Copyright 2024 Fonticons, Inc. --><path d="M336 56c0-4.4 3.6-8 8-8l112 0c4.4 0 8 3.6 8 8l0 160c0 13.3 10.7 24 24 24l80 0 16 0c4.4 0 8 3.6 8 8l0 240c0 13.3 10.7 24 24 24s24-10.7 24-24l0-240c0-28.2-20.9-51.6-48-55.4l0-72.6c0-13.3-10.7-24-24-24s-24 10.7-24 24l0 72-32 0 0-136c0-30.9-25.1-56-56-56L344 0c-30.9 0-56 25.1-56 56l0 432c0 13.3 10.7 24 24 24s24-10.7 24-24l0-432zm32 40l0 32c0 8.8 7.2 16 16 16l32 0c8.8 0 16-7.2 16-16l0-32c0-8.8-7.2-16-16-16l-32 0c-8.8 0-16 7.2-16 16zm16 80c-8.8 0-16 7.2-16 16l0 32c0 8.8 7.2 16 16 16l32 0c8.8 0 16-7.2 16-16l0-32c0-8.8-7.2-16-16-16l-32 0zM368 288l0 32c0 8.8 7.2 16 16 16l32 0c8.8 0 16-7.2 16-16l0-32c0-8.8-7.2-16-16-16l-32 0c-8.8 0-16 7.2-16 16zm144-16c-8.8 0-16 7.2-16 16l0 32c0 8.8 7.2 16 16 16l32 0c8.8 0 16-7.2 16-16l0-32c0-8.8-7.2-16-16-16l-32 0zM496 384l0 32c0 8.8 7.2 16 16 16l32 0c8.8 0 16-7.2 16-16l0-32c0-8.8-7.2-16-16-16l-32 0c-8.8 0-16 7.2-16 16zM224 160c0-53-43-96-96-96c-54 0-96 43-96 96c0 6 0 11 1 16C13 190 0 214 0 240c0 45 35 80 80 80l16 0 0 160c0 18 14 32 32 32c17 0 32-14 32-32l0-160 16 0c44 0 80-35 80-80c0-26-14-50-34-64c1-5 2-10 2-16z"/></svg>

<svg xmlns="http://www.w3.org/2000/svg" viewBox="0 0 640 512"><!--! Font Awesome Pro 6.4.2 by @fontawesome - https://fontawesome.com License - https://fontawesome.com/license (Commercial License) Copyright 2023 Fonticons, Inc. --><path d="M336 56c0-4.4 3.6-8 8-8H456c4.4 0 8 3.6 8 8V216c0 13.3 10.7 24 24 24h80 16c4.4 0 8 3.6 8 8V488c0 13.3 10.7 24 24 24s24-10.7 24-24V248c0-28.2-20.9-51.6-48-55.4V120c0-13.3-10.7-24-24-24s-24 10.7-24 24v72H512V56c0-30.9-25.1-56-56-56H344c-30.9 0-56 25.1-56 56V488c0 13.3 10.7 24 24 24s24-10.7 24-24V56zm32 40v32c0 8.8 7.2 16 16 16h32c8.8 0 16-7.2 16-16V96c0-8.8-7.2-16-16-16H384c-8.8 0-16 7.2-16 16zm16 80c-8.8 0-16 7.2-16 16v32c0 8.8 7.2 16 16 16h32c8.8 0 16-7.2 16-16V192c0-8.8-7.2-16-16-16H384zM368 288v32c0 8.8 7.2 16 16 16h32c8.8 0 16-7.2 16-16V288c0-8.8-7.2-16-16-16H384c-8.8 0-16 7.2-16 16zm144-16c-8.8 0-16 7.2-16 16v32c0 8.8 7.2 16 16 16h32c8.8 0 16-7.2 16-16V288c0-8.8-7.2-16-16-16H512zM496 384v32c0 8.8 7.2 16 16 16h32c8.8 0 16-7.2 16-16V384c0-8.8-7.2-16-16-16H512c-8.8 0-16 7.2-16 16zM224 160c0-53-43-96-96-96c-54 0-96 43-96 96c0 6 0 11 1 16C13 190 0 214 0 240c0 45 35 80 80 80H96V480c0 18 14 32 32 32c17 0 32-14 32-32V320h16c44 0 80-35 80-80c0-26-14-50-34-64c1-5 2-10 2-16z"/></svg>
